Flat-Remix-Dark/apps/scalable/software-properties.svg

<?xml version="1.0" encoding="UTF-8" standalone="no"?>
<svg
   xmlns:dc="http://purl.org/dc/elements/1.1/"
   xmlns:cc="http://creativecommons.org/ns#"
   xmlns:rdf="http://www.w3.org/1999/02/22-rdf-syntax-ns#"
   xmlns:svg="http://www.w3.org/2000/svg"
   xmlns="http://www.w3.org/2000/svg"
   xmlns:xlink="http://www.w3.org/1999/xlink"
   xmlns:sodipodi="http://sodipodi.sourceforge.net/DTD/sodipodi-0.dtd"
   xmlns:inkscape="http://www.inkscape.org/namespaces/inkscape"
   width="384pt"
   height="384pt"
   version="1.1"
   viewBox="0 0 384 384"
   id="svg56"
   sodipodi:docname="appset.svg"
   inkscape:version="0.92.2 2405546, 2018-03-11">
  <metadata
     id="metadata60">
    <rdf:RDF>
      <cc:Work
         rdf:about="">
        <dc:format>image/svg+xml</dc:format>
        <dc:type
           rdf:resource="http://purl.org/dc/dcmitype/StillImage" />
      </cc:Work>
    </rdf:RDF>
  </metadata>
  <sodipodi:namedview
     pagecolor="#ffffff"
     bordercolor="#666666"
     borderopacity="1"
     objecttolerance="10"
     gridtolerance="10"
     guidetolerance="10"
     inkscape:pageopacity="0"
     inkscape:pageshadow="2"
     inkscape:window-width="882"
     inkscape:window-height="830"
     id="namedview58"
     showgrid="false"
     inkscape:zoom="0.23046875"
     inkscape:cx="-99.221892"
     inkscape:cy="821.47041"
     inkscape:window-x="151"
     inkscape:window-y="493"
     inkscape:window-maximized="0"
     inkscape:current-layer="svg56" />
  <defs
     id="defs38">
    <filter
       id="alpha"
       width="100%"
       height="100%"
       x="0%"
       y="0%"
       filterUnits="objectBoundingBox">
      <feColorMatrix
         in="SourceGraphic"
         type="matrix"
         values="0 0 0 0 1 0 0 0 0 1 0 0 0 0 1 0 0 0 1 0"
         id="feColorMatrix2" />
    </filter>
    <mask
       id="mask0">
      <g
         filter="url(#alpha)"
         id="g7">
        <rect
           width="384"
           height="384"
           x="0"
           y="0"
           style="fill:rgb(0%,0%,0%);fill-opacity:0.301961"
           id="rect5" />
      </g>
    </mask>
    <clipPath
       id="clip1">
      <rect
         width="384"
         height="384"
         x="0"
         y="0"
         id="rect10" />
    </clipPath>
    <g
       id="surface5"
       clip-path="url(#clip1)">
      <path
         style="fill:rgb(0%,0%,0%)"
         d="M 179.8125 274.023438 C 165.53125 271.730469 149.476562 263.320312 139.054688 252.660156 C 123.480469 236.734375 115.421875 213.351562 117.957031 191.445312 C 122.082031 155.8125 148.785156 128.605469 183.671875 124.496094 C 206.089844 121.855469 228.964844 129.953125 244.753906 146.125 C 260.523438 162.273438 268.589844 185.558594 266.039062 207.578125 C 262.644531 236.898438 244.449219 260.28125 217.0625 270.515625 C 205.421875 274.867188 192.597656 276.074219 179.8125 274.023438 Z M 208.925781 256.773438 C 228.886719 250.066406 245.046875 232.3125 250.238281 211.390625 C 251.613281 205.851562 251.621094 193.195312 250.25 187.542969 C 245.21875 166.769531 228.996094 149.03125 208.6875 142.097656 C 201.785156 139.738281 200.160156 139.484375 192 139.5 C 184.34375 139.515625 181.933594 139.851562 176.277344 141.691406 C 161.277344 146.5625 149.894531 155.667969 141.277344 169.683594 C 132.878906 183.339844 130.464844 198.25 134.242188 213.117188 C 140.003906 235.777344 161.03125 255.289062 183.945312 259.234375 C 190.980469 260.445312 200.921875 259.464844 208.925781 256.773438 Z M 180.140625 227.636719 C 173.90625 220.765625 165.328125 211.351562 161.074219 206.722656 C 150.570312 195.285156 148.367188 192.425781 149.675781 191.933594 C 150.253906 191.71875 156.210938 191.449219 162.910156 191.335938 L 175.097656 191.128906 L 175.492188 174.796875 L 175.882812 158.460938 L 183.941406 158.0625 C 188.375 157.84375 195.625 157.84375 200.058594 158.0625 L 208.117188 158.460938 L 208.507812 174.796875 L 208.902344 191.128906 L 221.089844 191.335938 C 227.789062 191.449219 233.746094 191.71875 234.324219 191.933594 C 235.632812 192.425781 233.429688 195.285156 222.925781 206.722656 C 218.671875 211.351562 210.09375 220.765625 203.859375 227.636719 C 197.625 234.507812 192.289062 240.132812 192 240.132812 C 191.710938 240.132812 186.375 234.507812 180.140625 227.636719 Z M 180.140625 227.636719"
         id="path13" />
    </g>
    <mask
       id="mask1">
      <g
         filter="url(#alpha)"
         id="g18">
        <rect
           width="384"
           height="384"
           x="0"
           y="0"
           style="fill:rgb(0%,0%,0%);fill-opacity:0.301961"
           id="rect16" />
      </g>
    </mask>
    <clipPath
       id="clip2">
      <rect
         width="384"
         height="384"
         x="0"
         y="0"
         id="rect21" />
    </clipPath>
    <g
       id="surface8"
       clip-path="url(#clip2)">
      <path
         style="fill-rule:evenodd;fill:rgb(100.000%,100.000%,100.000%)"
         d="M 61.144531 23.261719 C 40.152344 23.261719 23.25 40.160156 23.25 61.152344 L 23.25 76.152344 C 23.25 55.160156 32.652344 45.761719 53.644531 45.761719 L 330.355469 45.761719 C 351.347656 45.761719 360.75 55.160156 360.75 76.152344 L 360.75 61.152344 C 360.75 40.160156 343.847656 23.261719 322.855469 23.261719 Z M 61.144531 23.261719"
         id="path24" />
    </g>
    <mask
       id="mask2">
      <g
         filter="url(#alpha)"
         id="g29">
        <rect
           width="384"
           height="384"
           x="0"
           y="0"
           style="fill:rgb(0%,0%,0%);fill-opacity:0.301961"
           id="rect27" />
      </g>
    </mask>
    <clipPath
       id="clip3">
      <rect
         width="384"
         height="384"
         x="0"
         y="0"
         id="rect32" />
    </clipPath>
    <g
       id="surface11"
       clip-path="url(#clip3)">
      <path
         style="fill-rule:evenodd;fill:rgb(0%,0%,0%)"
         d="M 23.25 315.355469 L 23.25 322.855469 C 23.25 343.847656 40.152344 360.75 61.144531 360.75 L 322.855469 360.75 C 343.847656 360.75 360.75 343.847656 360.75 322.855469 L 360.75 315.355469 C 360.75 336.347656 343.847656 353.25 322.855469 353.25 L 61.144531 353.25 C 40.152344 353.25 23.25 336.347656 23.25 315.355469 Z M 23.25 315.355469"
         id="path35" />
    </g>
  </defs>
  <g
     id="g54">
    <path
       style="fill-rule:evenodd;fill:rgb(74.117%,59.215%,46.666%)"
       d="M 61.144531 23.257812 L 322.855469 23.257812 C 343.785156 23.257812 360.75 40.222656 360.75 61.152344 L 360.75 322.851562 C 360.75 343.78125 343.785156 360.746094 322.855469 360.746094 L 61.144531 360.746094 C 40.214844 360.746094 23.25 343.78125 23.25 322.851562 L 23.25 61.152344 C 23.25 40.222656 40.214844 23.257812 61.144531 23.257812 Z M 61.144531 23.257812"
       id="path40" />
    <use
       mask="url(#mask0)"
       xlink:href="#surface5"
       id="use42" />
    <path
       style="fill:rgb(40.784%,29.803%,20.784%)"
       d="M 179.8125 266.523438 C 165.53125 264.230469 149.476562 255.820312 139.054688 245.160156 C 123.480469 229.234375 115.421875 205.851562 117.957031 183.945312 C 122.082031 148.3125 148.785156 121.105469 183.671875 116.996094 C 206.089844 114.355469 228.964844 122.453125 244.753906 138.625 C 260.523438 154.773438 268.589844 178.058594 266.039062 200.078125 C 262.644531 229.398438 244.449219 252.78125 217.0625 263.015625 C 205.421875 267.367188 192.597656 268.574219 179.8125 266.523438 Z M 208.925781 249.273438 C 228.886719 242.566406 245.046875 224.8125 250.238281 203.890625 C 251.613281 198.351562 251.621094 185.695312 250.25 180.042969 C 245.21875 159.269531 228.996094 141.53125 208.6875 134.597656 C 201.785156 132.238281 200.160156 131.984375 192 132 C 184.34375 132.015625 181.933594 132.351562 176.277344 134.191406 C 161.277344 139.0625 149.894531 148.167969 141.277344 162.183594 C 132.878906 175.839844 130.464844 190.75 134.242188 205.617188 C 140.003906 228.277344 161.03125 247.789062 183.945312 251.734375 C 190.980469 252.945312 200.921875 251.964844 208.925781 249.273438 Z M 180.140625 220.136719 C 173.90625 213.265625 165.328125 203.851562 161.074219 199.222656 C 150.570312 187.785156 148.367188 184.925781 149.675781 184.433594 C 150.253906 184.21875 156.210938 183.949219 162.910156 183.835938 L 175.097656 183.628906 L 175.492188 167.296875 L 175.882812 150.960938 L 183.941406 150.5625 C 188.375 150.34375 195.625 150.34375 200.058594 150.5625 L 208.117188 150.960938 L 208.507812 167.296875 L 208.902344 183.628906 L 221.089844 183.835938 C 227.789062 183.949219 233.746094 184.21875 234.324219 184.433594 C 235.632812 184.925781 233.429688 187.785156 222.925781 199.222656 C 218.671875 203.851562 210.09375 213.265625 203.859375 220.136719 C 197.625 227.007812 192.289062 232.632812 192 232.632812 C 191.710938 232.632812 186.375 227.007812 180.140625 220.136719 Z M 180.140625 220.136719"
       id="path44" />
    <path
       style="fill-rule:evenodd;fill:#664a33;fill-opacity:1"
       d="M 161.582031 328.734375 L 215.90625 328.734375 C 216.792969 328.734375 217.511719 329.453125 217.511719 330.339844 L 217.511719 359.109375 C 217.511719 359.996094 216.792969 360.714844 215.90625 360.714844 L 161.582031 360.714844 C 160.695312 360.714844 159.976562 359.996094 159.976562 359.109375 L 159.976562 330.339844 C 159.976562 329.453125 160.695312 328.734375 161.582031 328.734375 Z M 161.582031 328.734375"
       id="path46" />
    <path
       style="fill-rule:evenodd;fill:#664a33;fill-opacity:1"
       d="M 162.226562 23.25 L 216.550781 23.25 C 217.4375 23.25 218.15625 23.96875 218.15625 24.855469 L 218.15625 53.625 C 218.15625 54.511719 217.4375 55.230469 216.550781 55.230469 L 162.226562 55.230469 C 161.339844 55.230469 160.621094 54.511719 160.621094 53.625 L 160.621094 24.855469 C 160.621094 23.96875 161.339844 23.25 162.226562 23.25 Z M 162.226562 23.25"
       id="path48" />
    <use
       mask="url(#mask1)"
       xlink:href="#surface8"
       id="use50" />
    <use
       mask="url(#mask2)"
       xlink:href="#surface11"
       id="use52" />
  </g>
</svg>

<svg width="512" height="512" version="1.1" viewBox="0 0 384 384" xmlns="http://www.w3.org/2000/svg"><defs><clipPath id="c"><rect width="384" height="384"/></clipPath></defs><path d="m61.145 23.256h261.71c20.93 0 37.895 16.965 37.895 37.895v261.7c0 20.93-16.965 37.895-37.895 37.895h-261.71c-20.93 0-37.895-16.965-37.895-37.895v-261.7c0-20.93 16.965-37.895 37.895-37.895z" fill="#bd9775" fill-rule="evenodd"/><path d="m179.81 274.02c-14.281-2.293-30.336-10.703-40.758-21.363-15.574-15.926-23.633-39.309-21.098-61.215 4.125-35.633 30.828-62.84 65.715-66.949 22.418-2.6406 45.293 5.457 61.082 21.629 15.77 16.148 23.836 39.434 21.285 61.453-3.3945 29.32-21.59 52.703-48.977 62.938-11.641 4.3516-24.465 5.5586-37.25 3.5078zm29.113-17.25c19.961-6.707 36.121-24.461 41.312-45.383 1.375-5.5391 1.3828-18.195 0.0117-23.848-5.0312-20.773-21.254-38.512-41.562-45.445-6.9023-2.3594-8.5273-2.6133-16.688-2.5977-7.6562 0.0156-10.066 0.35156-15.723 2.1914-15 4.8711-26.383 13.977-35 27.992-8.3984 13.656-10.812 28.566-7.0352 43.434 5.7617 22.66 26.789 42.172 49.703 46.117 7.0352 1.2109 16.977 0.23047 24.98-2.4609zm-28.785-29.137c-6.2344-6.8711-14.812-16.285-19.066-20.914-10.504-11.438-12.707-14.297-11.398-14.789 0.57812-0.21484 6.5352-0.48438 13.234-0.59766l12.188-0.20703 0.39453-16.332 0.39062-16.336 8.0586-0.39845c4.4336-0.21874 11.684-0.21874 16.117 0l8.0586 0.39845 0.39062 16.336 0.39453 16.332 12.188 0.20703c6.6992 0.11328 12.656 0.38281 13.234 0.59766 1.3086 0.49219-0.89454 3.3516-11.398 14.789-4.2539 4.6289-12.832 14.043-19.066 20.914-6.2344 6.8711-11.57 12.496-11.859 12.496s-5.625-5.625-11.859-12.496z" opacity=".3"/><path d="m179.81 266.52c-14.281-2.293-30.336-10.703-40.758-21.363-15.574-15.926-23.633-39.309-21.098-61.215 4.125-35.633 30.828-62.84 65.715-66.949 22.418-2.6406 45.293 5.457 61.082 21.629 15.77 16.148 23.836 39.434 21.285 61.453-3.3945 29.32-21.59 52.703-48.977 62.938-11.641 4.3516-24.465 5.5586-37.25 3.5078zm29.113-17.25c19.961-6.707 36.121-24.461 41.312-45.383 1.375-5.5391 1.3828-18.195 0.011719-23.848-5.0312-20.773-21.254-38.512-41.562-45.445-6.9023-2.3594-8.5273-2.6133-16.688-2.5977-7.6562 0.015625-10.066 0.35156-15.723 2.1914-15 4.8711-26.383 13.977-35 27.992-8.3984 13.656-10.812 28.566-7.0352 43.434 5.7617 22.66 26.789 42.172 49.703 46.117 7.0352 1.2109 16.977 0.23047 24.98-2.4609zm-28.785-29.137c-6.2344-6.8711-14.812-16.285-19.066-20.914-10.504-11.438-12.707-14.297-11.398-14.789 0.57812-0.21484 6.5352-0.48438 13.234-0.59766l12.188-0.20703 0.39453-16.332 0.39062-16.336 8.0586-0.39844c4.4336-0.21875 11.684-0.21875 16.117 0l8.0586 0.39844 0.39062 16.336 0.39453 16.332 12.188 0.20703c6.6992 0.11328 12.656 0.38281 13.234 0.59766 1.3086 0.49219-0.89453 3.3516-11.398 14.789-4.2539 4.6289-12.832 14.043-19.066 20.914-6.2344 6.8711-11.57 12.496-11.859 12.496s-5.625-5.625-11.859-12.496z" fill="#674b34"/><g fill-rule="evenodd"><path d="m161.58 328.73h54.324c0.88672 0 1.6055 0.71875 1.6055 1.6055v28.77c0 0.88672-0.71875 1.6055-1.6055 1.6055h-54.324c-0.88672 0-1.6055-0.71875-1.6055-1.6055v-28.77c0-0.88672 0.71875-1.6055 1.6055-1.6055z" fill="#664a33"/><path d="m162.23 23.25h54.324c0.88672 0 1.6055 0.71875 1.6055 1.6055v28.77c0 0.88672-0.71875 1.6055-1.6055 1.6055h-54.324c-0.88672 0-1.6055-0.71875-1.6055-1.6055v-28.77c0-0.88672 0.71875-1.6055 1.6055-1.6055z" fill="#664a33"/><path transform="scale(.75)" d="m81.525 31.008c-27.906 0-50.525 22.619-50.525 50.525v30c0-27.906 22.619-50.525 50.525-50.525h348.95c27.906 0 50.525 22.619 50.525 50.525v-30c0-27.906-22.619-50.525-50.525-50.525h-348.95z" fill="#fff" opacity=".3" stroke-width="1.3333"/><path transform="scale(.75)" d="m31 420.47v10c0 27.906 22.619 50.525 50.525 50.525h348.95c27.906 0 50.525-22.619 50.525-50.525v-10c0 27.906-22.619 50.525-50.525 50.525h-348.95c-27.906 0-50.525-22.619-50.525-50.525z" opacity=".3" stroke-width="1.3333"/></g></svg>
